packages/components/src/telekom/icons/home/iot/default.svg

<?xml version="1.0" encoding="UTF-8"?>
<svg width="24px" height="24px" viewBox="0 0 24 24" version="1.1" xmlns="http://www.w3.org/2000/svg" xmlns:xlink="http://www.w3.org/1999/xlink">
    <title>/svg/icon/home/iot/default</title>
    <g id="icon/home/iot/default" stroke="none" stroke-width="1" fill="none" fill-rule="evenodd">
        <path d="M15.25,10.5 C16.1,10.5 16.75,11.15 16.75,12 C16.75,12.9068182 15.9299587,13.631405 14.9856687,13.4779677 L14.85,13.45 L11.25,17.05 L11.25,20.2 C11.7,20.45 12,20.95 12,21.5 C12,22.35 11.35,23 10.5,23 C9.64999999,23 8.99999999,22.35 8.99999999,21.5 C8.99999999,21 9.24793387,20.5413223 9.63110442,20.2742299 L9.74999999,20.2 L9.74999999,16.45 L13.8,12.4 C13.55,11.4 14.3,10.5 15.25,10.5 Z M14.75,3.99999997 C17.6,4.84999997 19.75,7.34999998 20.1,10.4 C22.2,10.85 23.75,12.7 23.75,14.95 C23.75,17.4291666 21.8123071,19.4357253 19.3613094,19.5452879 L19.15,19.55 L12.75,19.55 L12.75,18.05 L19.2,18.05 C20.9,18.05 22.3,16.65 22.3,14.95 C22.3,13.8 21.7,12.85 20.8,12.3 C20.2545455,11.9727273 19.7884298,11.8834711 19.2670173,11.8398948 L18.65,11.8 L18.65,11.8 L18.6472565,11.297668 C18.6376543,10.7407407 18.5944445,10.2611111 18.4,9.59999999 C17.875,7.83409089 16.6210744,6.4326446 14.9861195,5.70007041 L14.75,5.59999997 L14.75,3.99999997 Z M10.25,3.99999997 L10.25,5.59999997 C8.84999999,6.14999998 7.74999995,7.14999998 7.04999998,8.49999997 L6.96982505,8.68483962 L6.96982505,8.68483962 L6.83221571,9.02740523 L6.83221571,9.02740523 L6.54866248,9.79896249 L6.54866248,9.79896249 L6.38281248,9.78281249 L6.38281248,9.78281249 L6.21723748,9.77488749 L6.21723748,9.77488749 L6.00696248,9.77266249 C5.96862497,9.77299999 5.92874997,9.77374999 5.88749997,9.77499999 L5.62479997,9.78919999 C5.25599997,9.81799999 4.81999997,9.88999999 4.39999997,10.05 C2.84999996,10.65 1.74999995,12.15 1.74999995,13.9 C1.74999995,16.0818182 3.48957756,17.8875114 5.6465968,17.9949439 L5.84999997,18 L8.24999995,18 L8.24999995,19.5 L5.84999997,19.5 C2.74999995,19.5 0.249999951,17 0.249999951,13.9 C0.249999951,10.9 2.59999996,8.44999999 5.49999997,8.24999998 C6.36086954,6.28913041 7.99943288,4.78572776 9.97811288,4.08985367 L10.25,3.99999997 Z M12.5,0.499999952 C13.35,0.499999952 14,1.14999995 14,1.99999995 C14,2.49499996 13.757,2.94949996 13.38035,3.29059996 L13.25,3.39999996 L13.25,8.39999998 L7.74999997,13.9 C7.84999998,14.8 7.09999998,15.55 6.24999997,15.55 C5.39999997,15.55 4.74999997,14.9 4.74999997,14.05 C4.74999997,12.9958333 5.71432289,12.3090278 6.67481913,12.6056785 L6.79999998,12.65 L11.75,7.69999998 L11.75,3.29999996 C11.3,3.04999996 11,2.54999996 11,1.99999995 C11,1.14999995 11.65,0.499999952 12.5,0.499999952 Z" id="Icon" fill="#000000"></path>
    </g>
</svg>

<svg width="24" height="24" xmlns="http://www.w3.org/2000/svg"><path d="M15.25 10.5c.85 0 1.5.65 1.5 1.5a1.51 1.51 0 01-1.764 1.478l-.136-.028-3.6 3.6v3.15c.45.25.75.75.75 1.3 0 .85-.65 1.5-1.5 1.5S9 22.35 9 21.5c0-.5.248-.959.631-1.226l.119-.074v-3.75l4.05-4.05c-.25-1 .5-1.9 1.45-1.9zm-.5-6.5c2.85.85 5 3.35 5.35 6.4 2.1.45 3.65 2.3 3.65 4.55a4.587 4.587 0 01-4.389 4.595l-.211.005h-6.4v-1.5h6.45c1.7 0 3.1-1.4 3.1-3.1 0-1.15-.6-2.1-1.5-2.65-.545-.327-1.012-.417-1.533-.46l-.617-.04-.003-.502A5.856 5.856 0 0018.4 9.6a6.192 6.192 0 00-3.414-3.9l-.236-.1V4zm-4.5 0v1.6c-1.4.55-2.5 1.55-3.2 2.9l-.08.185-.138.342-.283.772-.166-.016-.166-.008-.21-.002c-.038 0-.078 0-.12.002l-.262.014c-.369.029-.805.101-1.225.261-1.55.6-2.65 2.1-2.65 3.85 0 2.182 1.74 3.988 3.897 4.095L5.85 18h2.4v1.5h-2.4c-3.1 0-5.6-2.5-5.6-5.6 0-3 2.35-5.45 5.25-5.65a7.696 7.696 0 014.478-4.16L10.25 4zM12.5.5c.85 0 1.5.65 1.5 1.5 0 .495-.243.95-.62 1.29l-.13.11v5l-5.5 5.5c.1.9-.65 1.65-1.5 1.65s-1.5-.65-1.5-1.5c0-1.054.964-1.741 1.925-1.444l.125.044 4.95-4.95V3.3C11.3 3.05 11 2.55 11 2c0-.85.65-1.5 1.5-1.5z" fill="#000" fill-rule="evenodd"/></svg>
